SVG_Azure_Grouped/IoT/IoT Hub.svg

<?xml version="1.0" encoding="UTF-8" standalone="no"?>
<!-- Generated by Microsoft Visio, SVG Export IoT Hub.svg Page-1 -->

<svg
   xmlns:dc="http://purl.org/dc/elements/1.1/"
   xmlns:cc="http://creativecommons.org/ns#"
   xmlns:rdf="http://www.w3.org/1999/02/22-rdf-syntax-ns#"
   xmlns:svg="http://www.w3.org/2000/svg"
   xmlns="http://www.w3.org/2000/svg"
   xmlns:sodipodi="http://sodipodi.sourceforge.net/DTD/sodipodi-0.dtd"
   xmlns:inkscape="http://www.inkscape.org/namespaces/inkscape"
   width="0.78739893in"
   height="0.78744626in"
   viewBox="0 0 56.692724 56.696094"
   xml:space="preserve"
   class="st4"
   version="1.1"
   id="svg75"
   sodipodi:docname="IoT Hub.svg"
   style="font-size:12px;overflow:visible;color-interpolation-filters:sRGB;fill:none;fill-rule:evenodd;stroke-linecap:square;stroke-miterlimit:3"
   inkscape:version="0.92.5 (2060ec1f9f, 2020-04-08)"><metadata
   id="metadata79"><rdf:RDF><cc:Work
       rdf:about=""><dc:format>image/svg+xml</dc:format><dc:type
         rdf:resource="http://purl.org/dc/dcmitype/StillImage" /></cc:Work></rdf:RDF></metadata><sodipodi:namedview
   pagecolor="#ffffff"
   bordercolor="#666666"
   borderopacity="1"
   objecttolerance="10"
   gridtolerance="10"
   guidetolerance="10"
   inkscape:pageopacity="0"
   inkscape:pageshadow="2"
   inkscape:window-width="640"
   inkscape:window-height="480"
   id="namedview77"
   showgrid="false"
   inkscape:zoom="1.4225314"
   inkscape:cx="37.795184"
   inkscape:cy="37.601727"
   inkscape:window-x="0"
   inkscape:window-y="0"
   inkscape:window-maximized="0"
   inkscape:current-layer="svg75" />
	<style
   type="text/css"
   id="style2">
	<![CDATA[
		.st1 {fill:#ffffff;stroke:none;stroke-linecap:butt;stroke-width:33.7176}
		.st2 {fill:#949494;stroke:none;stroke-linecap:butt;stroke-width:33.7176}
		.st3 {fill:url(#grad0-22);stroke:none;stroke-linecap:butt;stroke-width:33.7176}
		.st4 {fill:none;fill-rule:evenodd;font-size:12px;overflow:visible;stroke-linecap:square;stroke-miterlimit:3}
	]]>
	</style>

	<defs
   id="Patterns_And_Gradients">
		<linearGradient
   id="grad0-22"
   x1="-4.4976367e-07"
   y1="77.712589"
   x2="47.953631"
   y2="77.712589"
   gradientTransform="scale(0.99787207,1.0021325)"
   gradientUnits="userSpaceOnUse">
			<stop
   offset="0"
   stop-color="#198ab3"
   stop-opacity="1"
   id="stop4" />
			<stop
   offset="0"
   stop-color="#198ab3"
   stop-opacity="1"
   id="stop6" />
			<stop
   offset="0.09"
   stop-color="#22a5cb"
   stop-opacity="1"
   id="stop8" />
			<stop
   offset="0.19"
   stop-color="#29bade"
   stop-opacity="1"
   id="stop10" />
			<stop
   offset="0.29"
   stop-color="#2ec9eb"
   stop-opacity="1"
   id="stop12" />
			<stop
   offset="0.42"
   stop-color="#31d1f3"
   stop-opacity="1"
   id="stop14" />
			<stop
   offset="0.62"
   stop-color="#32d4f5"
   stop-opacity="1"
   id="stop16" />
		</linearGradient>
	</defs>
	<g
   id="g73"
   transform="translate(-33.7176,-33.718194)">
		<title
   id="title20">Page-1</title>
		<g
   id="group20493-1"
   transform="translate(33.7176,-34.0157)">
			<title
   id="title22">IoT Hub.20493</title>
			<g
   id="shape20494-2"
   transform="translate(29.7754,-23.6248)">
				<title
   id="title24">fa3a22e9-e4e8-46a1-bc09-f953274</title>
				<ellipse
   cx="6.5465999"
   cy="117.853"
   rx="6.5465999"
   ry="6.5735798"
   class="st1"
   id="ellipse26"
   style="fill:#ffffff;stroke:none;stroke-width:33.71760178;stroke-linecap:butt" />
			</g>
			<g
   id="shape20495-4"
   transform="translate(42.1375,-5.47242)">
				<title
   id="title29">eb214416-6791-4934-ac0c-35afaa8</title>
				<ellipse
   cx="5.1508799"
   cy="119.254"
   rx="5.1508799"
   ry="5.1721001"
   class="st1"
   id="ellipse31"
   style="fill:#ffffff;stroke:none;stroke-width:33.71760178;stroke-linecap:butt" />
			</g>
			<g
   id="shape20496-6"
   transform="translate(22.4977,-9.74358)">
				<title
   id="title34">a4424413-b91f-48da-aedd-39e3a97</title>
				<ellipse
   cx="4.4197898"
   cy="119.988"
   rx="4.4197898"
   ry="4.4380002"
   class="st1"
   id="ellipse36"
   style="fill:#ffffff;stroke:none;stroke-width:33.71760178;stroke-linecap:butt" />
			</g>
			<g
   id="shape20497-8"
   transform="translate(18.2441,-42.478)">
				<title
   id="title39">f7ecfc1a-3268-471b-9464-57023bf</title>
				<ellipse
   cx="5.4831901"
   cy="118.92"
   rx="5.4831901"
   ry="5.5057902"
   class="st1"
   id="ellipse41"
   style="fill:#ffffff;stroke:none;stroke-width:33.71760178;stroke-linecap:butt" />
			</g>
			<g
   id="shape20498-10"
   transform="translate(4.61918,-23.2578)">
				<title
   id="title44">b4388938-ad80-41b4-b729-5c21e3e</title>
				<ellipse
   cx="4.4197898"
   cy="119.988"
   rx="4.4197898"
   ry="4.4380002"
   class="st1"
   id="ellipse46"
   style="fill:#ffffff;stroke:none;stroke-width:33.71760178;stroke-linecap:butt" />
			</g>
			<g
   id="shape20499-12"
   transform="translate(8.90604,-10.2775)">
				<title
   id="title49">polygon26</title>
				<path
   d="M 24.59,103.17 0,105.21 l 0.23,2.87 24.36,-2.04 -8.07,13.48 2.42,1.47 8.31,-13.88 9.87,17.32 2.46,-1.41 -11.07,-19.45 -1.09,0.63 0.89,-0.66 -12.53,-17.89 -2.29,1.67 z"
   class="st2"
   id="path51"
   inkscape:connector-curvature="0"
   style="fill:#949494;stroke:none;stroke-width:33.71760178;stroke-linecap:butt" />
			</g>
			<g
   id="group20500-14">
				<title
   id="title54">g32</title>
				<g
   id="shape20501-15"
   transform="translate(40.4427,-40.6761)">
					<title
   id="title56">path28</title>
					<path
   d="m 16.25,110.85 a 2.4259,2.43589 -180 0 0 -2.43,-2.44 H 1.2 a 1.19633,1.20126 -180 0 0 -1.2,1.2 v 4.71 a 1.19633,1.20126 -180 0 0 1.2,1.2 h 7.81 v 7.67 a 1.2628,1.268 -180 0 0 1.23,1.24 h 4.65 a 1.2628,1.268 -180 0 0 1.23,-1.24 v -12.34 z"
   class="st2"
   id="path58"
   inkscape:connector-curvature="0"
   style="fill:#949494;stroke:none;stroke-width:33.71760178;stroke-linecap:butt" />
				</g>
				<g
   id="shape20502-17">
					<title
   id="title61">path30</title>
					<path
   d="M 15.05,117.35 H 7.11 v -7.67 A 1.2628,1.268 -180 0 0 5.88,108.44 H 1.23 A 1.2628,1.268 -180 0 0 0,109.68 v 12.34 a 2.4259,2.43589 -180 0 0 2.43,2.41 h 12.62 a 1.19633,1.20126 -180 0 0 1.2,-1.21 v -4.67 a 1.19633,1.20126 -180 0 0 -1.2,-1.2 z"
   class="st2"
   id="path63"
   inkscape:connector-curvature="0"
   style="fill:#949494;stroke:none;stroke-width:33.71760178;stroke-linecap:butt" />
				</g>
			</g>
			<g
   id="shape20503-19"
   transform="translate(4.61918,-6.9421)">
				<title
   id="title67">path34</title>
				<path
   d="m 31.7,94.66 a 6.6463,6.67368 0 1 1 -6.64,6.51 6.6463,6.67368 0 0 1 6.64,-6.51 z M 13.76,83.38 a 5.51643,5.53915 -180 1 0 5.38,-5.5 5.4832,5.50579 -180 0 0 -5.38,5.5 z M 0,103.64 A 4.41979,4.438 -180 1 0 4.42,99.2 4.41979,4.438 -180 0 0 0,103.64 Z m 17.88,13.51 a 4.45302,4.47137 -180 1 0 4.45,-4.43 4.41979,4.438 -180 0 0 -4.45,4.43 z m 19.67,3.57 a 5.15088,5.1721 -180 1 0 5.15,-5.13 5.08442,5.10537 -180 0 0 -5.15,5.13 z"
   class="st3"
   id="path69"
   inkscape:connector-curvature="0"
   style="fill:url(#grad0-22);stroke:none;stroke-width:33.71760178;stroke-linecap:butt" />
			</g>
		</g>
	</g>
</svg>

<?xml version="1.0" encoding="UTF-8" standalone="no"?>
<!DOCTYPE svg PUBLIC "-//W3C//DTD SVG 1.1//EN" "http://www.w3.org/Graphics/SVG/1.1/DTD/svg11.dtd">
<!-- Generated by Microsoft Visio, SVG Export IoT Hub.svg Page-1 -->
<svg xmlns="http://www.w3.org/2000/svg" xmlns:xlink="http://www.w3.org/1999/xlink" xmlns:ev="http://www.w3.org/2001/xml-events"
		width="1.724in" height="1.72814in" viewBox="0 0 124.128 124.426" xml:space="preserve" color-interpolation-filters="sRGB"
		class="st4">
	<style type="text/css">
	<![CDATA[
		.st1 {fill:#ffffff;stroke:none;stroke-linecap:butt;stroke-width:33.7176}
		.st2 {fill:#949494;stroke:none;stroke-linecap:butt;stroke-width:33.7176}
		.st3 {fill:url(#grad0-22);stroke:none;stroke-linecap:butt;stroke-width:33.7176}
		.st4 {fill:none;fill-rule:evenodd;font-size:12px;overflow:visible;stroke-linecap:square;stroke-miterlimit:3}
	]]>
	</style>

	<defs id="Patterns_And_Gradients">
		<linearGradient id="grad0-22" x1="0" y1="0" x2="1" y2="0" gradientTransform="rotate(-90.596448237298 0.5 0.5)">
			<stop offset="0" stop-color="#198ab3" stop-opacity="1"/>
			<stop offset="0" stop-color="#198ab3" stop-opacity="1"/>
			<stop offset="0.09" stop-color="#22a5cb" stop-opacity="1"/>
			<stop offset="0.19" stop-color="#29bade" stop-opacity="1"/>
			<stop offset="0.29" stop-color="#2ec9eb" stop-opacity="1"/>
			<stop offset="0.42" stop-color="#31d1f3" stop-opacity="1"/>
			<stop offset="0.62" stop-color="#32d4f5" stop-opacity="1"/>
		</linearGradient>
	</defs>
	<g>
		<title>Page-1</title>
		<g id="group20038-1" transform="translate(33.7176,-34.0157)">
			<title>IoT Hub.20038</title>
			<g id="shape20039-2" transform="translate(29.7754,-23.6248)">
				<title>fa3a22e9-e4e8-46a1-bc09-f953274</title>
				<ellipse cx="6.5466" cy="117.853" rx="6.5466" ry="6.57358" class="st1"/>
			</g>
			<g id="shape20040-4" transform="translate(42.1375,-5.47242)">
				<title>eb214416-6791-4934-ac0c-35afaa8</title>
				<ellipse cx="5.15088" cy="119.254" rx="5.15088" ry="5.1721" class="st1"/>
			</g>
			<g id="shape20041-6" transform="translate(22.4977,-9.74358)">
				<title>a4424413-b91f-48da-aedd-39e3a97</title>
				<ellipse cx="4.41979" cy="119.988" rx="4.41979" ry="4.438" class="st1"/>
			</g>
			<g id="shape20042-8" transform="translate(18.2441,-42.478)">
				<title>f7ecfc1a-3268-471b-9464-57023bf</title>
				<ellipse cx="5.48319" cy="118.92" rx="5.48319" ry="5.50579" class="st1"/>
			</g>
			<g id="shape20043-10" transform="translate(4.61918,-23.2578)">
				<title>b4388938-ad80-41b4-b729-5c21e3e</title>
				<ellipse cx="4.41979" cy="119.988" rx="4.41979" ry="4.438" class="st1"/>
			</g>
			<g id="shape20044-12" transform="translate(8.90604,-10.2775)">
				<title>polygon26</title>
				<path d="M24.59 103.17 L0 105.21 L0.23 108.08 L24.59 106.04 L16.52 119.52 L18.94 120.99 L27.25 107.11 L37.12 124.43
							 L39.58 123.02 L28.51 103.57 L27.42 104.2 L28.31 103.54 L15.78 85.65 L13.49 87.32 L24.59 103.17 Z"
						class="st2"/>
			</g>
			<g id="group20045-14">
				<title>g32</title>
				<g id="shape20046-15" transform="translate(40.4427,-40.6761)">
					<title>path28</title>
					<path d="M16.25 110.85 A2.4259 2.43589 -180 0 0 13.82 108.41 L1.2 108.41 A1.19633 1.20126 -180 0 0 0 109.61 L0
								 114.32 A1.19633 1.20126 -180 0 0 1.2 115.52 L9.01 115.52 L9.01 123.19 A1.2628 1.268 -180 0 0 10.24
								 124.43 L14.89 124.43 A1.2628 1.268 -180 0 0 16.12 123.19 L16.12 110.85 L16.25 110.85 Z"
							class="st2"/>
				</g>
				<g id="shape20047-17">
					<title>path30</title>
					<path d="M15.05 117.35 L7.11 117.35 L7.11 109.68 A1.2628 1.268 -180 0 0 5.88 108.44 L1.23 108.44 A1.2628 1.268
								 -180 0 0 -0 109.68 L0 122.02 A2.4259 2.43589 -180 0 0 2.43 124.43 L15.05 124.43 A1.19633 1.20126
								 -180 0 0 16.25 123.22 L16.25 118.55 A1.19633 1.20126 -180 0 0 15.05 117.35 Z" class="st2"/>
				</g>
			</g>
			<g id="shape20048-19" transform="translate(4.61918,-6.9421)">
				<title>path34</title>
				<path d="M31.7 94.66 A6.6463 6.67368 0 1 1 25.06 101.17 A6.6463 6.67368 0 0 1 31.7 94.66 ZM13.76 83.38 A5.51643 5.53915
							 -180 1 0 19.14 77.88 A5.4832 5.50579 -180 0 0 13.76 83.38 ZM0 103.64 A4.41979 4.438 -180 1 0 4.42 99.2
							 A4.41979 4.438 -180 0 0 0 103.64 ZM17.88 117.15 A4.45302 4.47137 -180 1 0 22.33 112.72 A4.41979 4.438
							 -180 0 0 17.88 117.15 ZM37.55 120.72 A5.15088 5.1721 -180 1 0 42.7 115.59 A5.08442 5.10537 -180 0 0
							 37.55 120.72 Z" class="st3"/>
			</g>
		</g>
	</g>
</svg>
